X:1
T:Title
%%score ( 1 2 ) ( 3 4 )
L:1/8
Q:1/4=95
M:4/4
K:Eb
V:1 treble nm="Grand Piano, Soprano"
V:2 treble 
V:3 bass nm="Choir Pad, Theres a Blessing at the Cross"
V:4 bass 
V:1
 [EG][FA][GB][GB] [Ac][GB] [EG]2 | [EF]E[EG][GB] [Ge][Bd] [Ac]2 | [Ad][Ae][Ge][GB] [GB][Ac] [GB]2 | %3
w: By~John~Robson~Sweney * * * * * *|||
 [EG]2 [DF]6 | [EG][FA][GB][GB] [Ac][GB] [EG]2 | [EF]E[EG][GB] [Ge][Bd] [Ac]2 | %6
w: |||
 [Ad][_Ge][=Ge][GB] [GB][EB] [DB]2 | D2 [B,E]6 | [EG]>[EG] [DF]2 D>F B2 | [Fc]>[Fc] [Fd]4 [FB]2 | %10
w: ||||
 [Fd][Fd][Gf][Ge] [Gd][Gc] [FB]2 | =A-[EA] [DB]4- [DB][F_A] | [EG][FA][GB][GB] [Ac][GB] [EG]2 | %13
w: |||
 [EF]E[EG][GB] [Ge][Bd] [Ac]2 | [Ad][_Ge][=Ge][GB] [GB][EB] [DB]2 | D2 [B,E]6- | [B,E]2 z2 z4 |] %17
w: ||||
V:2
 x8 | x8 | x8 | x8 | x8 | x8 | x8 | x8 | x8 | x8 | x8 | .F2 z2 z4 | x8 | x8 | x8 | x8 | x8 |] %17
V:3
 [E,B,][E,B,][E,E][E,E] [E,E][E,E] [E,B,]2 | [E,A,][E,G,][E,B,][E,B,] [E,B,][G,E] [A,E]2 | %2
 [A,C][A,C][E,B,][E,E] [E,E][E,E] [E,E]2 | z4 z2 B,2 | [G,B,][F,B,][E,E][E,E] [E,E][E,E] [E,B,]2 | %5
 [E,A,][E,G,][E,B,][E,B,] [E,B,][G,E] [A,E]2 | [A,C][=A,C]B,[B,E] [B,,B,][B,,_A,] [B,,F,]2 | %7
 [B,,A,]2 [E,G,]6 | [E,B,]>[E,B,] [B,,B,]2 D,>F, B,2 | [F,=A,]>[F,A,] B,4 [B,D]2 | %10
 [B,,B,][B,,B,][E,B,][E,B,] [E,B,][E,E] [F,D]2 | [F,C]2 [B,,B,]6 | %12
 [E,B,][E,B,][E,E][E,E] [E,E][E,E] [E,B,]2 | [E,A,][E,G,][E,B,][E,B,] [E,B,][G,E] [A,E]2 | %14
 [A,C][=A,C]B,[B,E] [B,,B,][B,,_A,] [B,,F,]2 | [B,,A,]2 [E,G,]6- | [E,G,]2 z2 z4 |] %17
V:4
 x8 | x8 | x8 | [E,B,]2 B,4 z A, | x8 | x8 | x8 | x8 | x8 | x8 | x8 | x8 | x8 | x8 | x8 | x8 | %16
 x8 |] %17

